plasma/look-and-feel/com.github.sudorook.materia-dark/contents/splash/images/start-here-kde-logo.svg

<svg xmlns="http://www.w3.org/2000/svg" id="svg2" width="384" height="384" version="1.1">
 <path id="rect4140" style="fill:#1e1e1e" d="M 170.93555 0 L 170 38.921875 L 170 229.91016 L 230 220.5625 L 230 171.72266 L 272.09766 231.86328 L 381.31641 384 L 384 384 L 384 0 L 170.93555 0 z"/>
 <path id="path4140" style="opacity:0.05" d="m 220,48.99759 -40,3.9784 0,170.25601 40,-6.232 0,-72 56,80 47.544,-16 -63.544,-72 64,-72.00001 -48,-16 L 220,129 220,48.99759 Z"/>
 <path id="path4141" style="opacity:0.05" d="m 220,47.99759 -40,3.9784 0,170.25601 40,-6.232 0,-72 56,80 47.544,-16 -63.544,-72 64,-72.00001 -48,-16 L 220,128 220,47.99759 Z"/>
 <path id="path4139" style="opacity:0.05" d="m 220,46.99759 -40,3.9784 0,170.25601 40,-6.232 0,-72 56,80 47.544,-16 -63.544,-72 64,-72.00001 -48,-16 L 220,127 220,46.99759 Z"/>
 <path id="path4137" style="opacity:0.05" d="m 220,45.99759 -40,3.9784 0,170.25601 40,-6.232 0,-72 56,80 47.544,-16 -63.544,-72 64,-72.00001 -48,-16 L 220,126 220,45.99759 Z"/>
 <path id="path4135" style="opacity:0.05" d="m 220,44.99759 -40,3.9784 0,170.25601 40,-6.232 0,-72 56,80 47.544,-16 -63.544,-72 64,-72.00001 -48,-16 L 220,125 220,44.99759 Z"/>
 <path id="path14" style="fill:#ffffff" d="m 220,43.99759 -40,3.9784 0,170.25601 40,-6.232 0,-72 56,80 47.544,-16 -63.544,-72 64,-72.00001 -48,-16 L 220,124 220,43.99759 Z"/>
</svg>

<?xml version="1.0" encoding="UTF-8"?>
<svg id="svg2" width="384" height="384" version="1.1" xmlns="http://www.w3.org/2000/svg">
 <path id="rect4140" d="m170.94 0-0.93555 38.922v190.99l60-9.3477v-48.84l42.098 60.141 109.22 152.14h2.6836v-384h-213.06z" fill="#1e1e1e"/>
 <path id="path4140" d="m220 48.998-40 3.9784v170.26l40-6.232v-72l56 80 47.544-16-63.544-72 64-72-48-16-56 80v-80.002z" opacity=".05"/>
 <path id="path4141" d="m220 47.998-40 3.9784v170.26l40-6.232v-72l56 80 47.544-16-63.544-72 64-72-48-16-56 80v-80.002z" opacity=".05"/>
 <path id="path4139" d="m220 46.998-40 3.9784v170.26l40-6.232v-72l56 80 47.544-16-63.544-72 64-72-48-16-56 80v-80.002z" opacity=".05"/>
 <path id="path4137" d="m220 45.998-40 3.9784v170.26l40-6.232v-72l56 80 47.544-16-63.544-72 64-72-48-16-56 80v-80.002z" opacity=".05"/>
 <path id="path4135" d="m220 44.998-40 3.9784v170.26l40-6.232v-72l56 80 47.544-16-63.544-72 64-72-48-16-56 80v-80.002z" opacity=".05"/>
 <path id="path14" d="m220 43.998-40 3.9784v170.26l40-6.232v-72l56 80 47.544-16-63.544-72 64-72-48-16-56 80v-80.002z" fill="#fff"/>
</svg>
